X:11
T:Johnenas Fine Mincemeat Pie
R:reel
C:Jerry Holland
O:20th Century Cape Breton
S:Tune of the Month, December 1998
A:<http://www.jerryholland.com>
N:Contacts ...
N:..... Jerry Holland <jerry@cranfordpub.com>
N:Tune books, related recordings
N:..... Cranford Publications <http://www.cranfordpub.com>
H:Copyrights - www.fiddlesticksmusic.com (SOCAN)
Z:Paul Stewart Cranford <psc@cranfordpub.com>
L:1/8
Q:300
M:C|
K:Bb
|:c|(AB)FE DB,B,c|BGTFD C_A,_A,c|BGTFE DEFG|ABce dBB:|!
g|fBdB (AB)Bg|fBdB e_A_Ag|fBdB (AB)BG|ABce dBBg|!
fBdB (AB)Bg|fBdB _Aceg|fdec dBcA|BGTFE DB,B,|]!
